img/01.svg

<svg width="74" height="60" viewBox="0 0 74 60" fill="none" xmlns="http://www.w3.org/2000/svg">
<path d="M5.88 8.32L4.22362 7.19902L4.2159 7.2106L5.88 8.32ZM40.2 8.32L38.5359 9.42942L38.5437 9.44096L40.2 8.32ZM40.2 51.84L38.5436 50.719L38.5359 50.7306L40.2 51.84ZM5.88 51.84L4.21586 52.9494L4.22366 52.961L5.88 51.84ZM30.36 17.6L28.503 18.3428L28.5078 18.3546L30.36 17.6ZM15.8 17.6L17.6522 18.3546L17.657 18.3428L15.8 17.6ZM14.68 39.04L12.7109 39.3901L12.7123 39.3978L14.68 39.04ZM17.24 44.8L15.7215 46.1016L15.7464 46.1307L15.7725 46.1588L17.24 44.8ZM28.84 44.8L27.3481 43.468L27.3452 43.4713L28.84 44.8ZM31.48 39.04L33.4478 39.3978L33.4491 39.3901L31.48 39.04ZM2.6 30C2.6 21.0541 4.3205 14.2648 7.5441 9.4294L4.2159 7.2106C0.399496 12.9352 -1.4 20.5993 -1.4 30H2.6ZM7.53634 9.44095C10.6473 4.8441 15.6712 2.39999 23.08 2.39999V-1.60001C14.7021 -1.60001 8.25933 1.23589 4.22366 7.19904L7.53634 9.44095ZM23.08 2.39999C30.4898 2.39999 35.479 4.84399 38.5359 9.4294L41.8641 7.2106C37.881 1.236 31.4569 -1.60001 23.08 -1.60001V2.39999ZM38.5437 9.44096C41.8147 14.2742 43.56 21.0588 43.56 30H47.56C47.56 20.5945 45.732 12.9258 41.8563 7.19904L38.5437 9.44096ZM43.56 30C43.56 39.0535 41.8125 45.889 38.5437 50.719L41.8563 52.961C45.7342 47.231 47.56 39.5065 47.56 30H43.56ZM38.5359 50.7306C35.479 55.316 30.4898 57.76 23.08 57.76V61.76C31.4569 61.76 37.881 58.924 41.8641 52.9494L38.5359 50.7306ZM23.08 57.76C15.6712 57.76 10.6473 55.3159 7.53634 50.719L4.22366 52.961C8.25933 58.9241 14.7021 61.76 23.08 61.76V57.76ZM7.5441 50.7306C4.32262 45.8984 2.6 39.0581 2.6 30H-1.4C-1.4 39.5019 0.397377 47.2216 4.2159 52.9494L7.5441 50.7306ZM34.12 30C34.12 24.5161 33.5297 20.0793 32.2122 16.8454L28.5078 18.3546C29.537 20.8807 30.12 24.7105 30.12 30H34.12ZM32.217 16.8572C31.4882 15.0353 30.3224 13.5722 28.6945 12.5883C27.0891 11.618 25.1783 11.2 23.08 11.2V15.2C24.6617 15.2 25.8042 15.5153 26.6255 16.0117C27.4242 16.4944 28.0585 17.2314 28.503 18.3428L32.217 16.8572ZM23.08 11.2C20.9817 11.2 19.0709 11.618 17.4655 12.5883C15.8376 13.5722 14.6718 15.0353 13.943 16.8572L17.657 18.3428C18.1015 17.2314 18.7358 16.4944 19.5345 16.0117C20.3558 15.5153 21.4983 15.2 23.08 15.2V11.2ZM13.9478 16.8454C12.6303 20.0793 12.04 24.5161 12.04 30H16.04C16.04 24.7105 16.623 20.8807 17.6522 18.3546L13.9478 16.8454ZM12.04 30C12.04 33.6932 12.2564 36.8334 12.7109 39.3901L16.6491 38.6899C16.2503 36.4466 16.04 33.5601 16.04 30H12.04ZM12.7123 39.3978C13.1889 42.0192 14.1662 44.2871 15.7215 46.1016L18.7585 43.4984C17.7538 42.3262 17.0245 40.7541 16.6477 38.6822L12.7123 39.3978ZM15.7725 46.1588C17.5907 48.1225 20.1416 48.96 23.08 48.96V44.96C20.8984 44.96 19.5559 44.3575 18.7075 43.4412L15.7725 46.1588ZM23.08 48.96C26.0133 48.96 28.5611 48.1242 30.3348 46.1287L27.3452 43.4713C26.5589 44.3558 25.2667 44.96 23.08 44.96V48.96ZM30.3319 46.132C31.9539 44.3154 32.9679 42.0369 33.4477 39.3978L29.5123 38.6822C29.1388 40.7365 28.3928 42.298 27.3481 43.468L30.3319 46.132ZM33.4491 39.3901C33.9036 36.8334 34.12 33.6932 34.12 30H30.12C30.12 33.5601 29.9097 36.4466 29.5109 38.6899L33.4491 39.3901ZM51.3475 14.32H49.3475V16.32H51.3475V14.32ZM51.3475 1.6V-0.400002H49.3475V1.6H51.3475ZM73.5075 1.6H75.5075V-0.400002H73.5075V1.6ZM73.5075 60V62H75.5075V60H73.5075ZM59.2675 60H57.2675V62H59.2675V60ZM59.2675 14.32H61.2675V12.32H59.2675V14.32ZM53.3475 14.32V1.6H49.3475V14.32H53.3475ZM51.3475 3.6H73.5075V-0.400002H51.3475V3.6ZM71.5075 1.6V60H75.5075V1.6H71.5075ZM73.5075 58H59.2675V62H73.5075V58ZM61.2675 60V14.32H57.2675V60H61.2675ZM59.2675 12.32H51.3475V16.32H59.2675V12.32Z" fill="#04A493"/>
</svg>

<svg width="74" height="60" fill="none" xmlns="http://www.w3.org/2000/svg"><path d="M5.88 8.32 4.224 7.199l-.008.012L5.88 8.32Zm34.32 0-1.664 1.11.008.011L40.2 8.32Zm0 43.52-1.656-1.121-.008.012L40.2 51.84Zm-34.32 0-1.664 1.11.008.011L5.88 51.84ZM30.36 17.6l-1.857.743.005.012 1.852-.755Zm-14.56 0 1.852.755.005-.012L15.8 17.6Zm-1.12 21.44-1.97.35.002.008 1.968-.358Zm2.56 5.76-1.518 1.302.024.029.027.028L17.24 44.8Zm11.6 0-1.492-1.332-.003.003L28.84 44.8Zm2.64-5.76 1.968.358.001-.008-1.969-.35ZM2.6 30c0-8.946 1.72-15.735 4.944-20.57L4.216 7.21C.399 12.936-1.4 20.6-1.4 30h4ZM7.536 9.44c3.111-4.596 8.135-7.04 15.544-7.04v-4c-8.378 0-14.82 2.836-18.856 8.799l3.312 2.242Zm15.544-7.04c7.41 0 12.399 2.444 15.456 7.03l3.328-2.22C37.881 1.237 31.457-1.6 23.08-1.6v4Zm15.464 7.041C41.814 14.274 43.56 21.059 43.56 30h4c0-9.405-1.828-17.074-5.704-22.801l-3.312 2.242ZM43.56 30c0 9.053-1.748 15.889-5.016 20.719l3.312 2.242C45.734 47.231 47.56 39.507 47.56 30h-4Zm-5.024 20.73c-3.057 4.586-8.046 7.03-15.456 7.03v4c8.377 0 14.801-2.836 18.784-8.81l-3.328-2.22ZM23.08 57.76c-7.409 0-12.433-2.444-15.544-7.041l-3.312 2.242c4.035 5.963 10.478 8.799 18.856 8.799v-4ZM7.544 50.73C4.323 45.899 2.6 39.059 2.6 30h-4c0 9.502 1.797 17.222 5.616 22.95l3.328-2.22ZM34.12 30c0-5.484-.59-9.92-1.908-13.155l-3.704 1.51C29.537 20.88 30.12 24.71 30.12 30h4Zm-1.903-13.143c-.729-1.822-1.895-3.285-3.522-4.269-1.606-.97-3.517-1.388-5.615-1.388v4c1.582 0 2.724.315 3.546.812.798.482 1.432 1.22 1.877 2.33l3.714-1.485ZM23.08 11.2c-2.098 0-4.01.418-5.614 1.388-1.628.984-2.794 2.447-3.523 4.27l3.714 1.485c.445-1.112 1.079-1.849 1.878-2.331.82-.497 1.963-.812 3.545-.812v-4Zm-9.132 5.645C12.63 20.08 12.04 24.516 12.04 30h4c0-5.29.583-9.12 1.612-11.645l-3.704-1.51ZM12.04 30c0 3.693.216 6.833.67 9.39l3.94-.7c-.4-2.243-.61-5.13-.61-8.69h-4Zm.672 9.398c.477 2.621 1.454 4.89 3.01 6.704l3.037-2.604c-1.005-1.172-1.735-2.744-2.111-4.816l-3.936.716Zm3.06 6.76c1.819 1.965 4.37 2.802 7.308 2.802v-4c-2.182 0-3.524-.602-4.372-1.519l-2.935 2.718Zm7.308 2.802c2.933 0 5.481-.836 7.255-2.831l-2.99-2.658c-.786.885-2.078 1.489-4.265 1.489v4Zm7.252-2.828c1.622-1.817 2.636-4.095 3.116-6.734l-3.936-.716c-.373 2.054-1.12 3.616-2.164 4.786l2.984 2.664Zm3.117-6.742c.455-2.557.671-5.697.671-9.39h-4c0 3.56-.21 6.447-.61 8.69l3.94.7Zm17.898-25.07h-2v2h2v-2Zm0-12.72v-2h-2v2h2Zm22.16 0h2v-2h-2v2Zm0 58.4v2h2v-2h-2Zm-14.24 0h-2v2h2v-2Zm0-45.68h2v-2h-2v2Zm-5.92 0V1.6h-4v12.72h4Zm-2-10.72h22.16v-4h-22.16v4Zm20.16-2V60h4V1.6h-4Zm2 56.4h-14.24v4h14.24v-4Zm-12.24 2V14.32h-4V60h4Zm-2-47.68h-7.92v4h7.92v-4Z" fill="#04A493"/></svg>
